static/assets/img/icons/theme/communication/chat-4.svg

<svg height="24" viewBox="0 0 24 24" width="24" xmlns="http://www.w3.org/2000/svg"><g fill="none" fill-rule="evenodd"><path d="m0 0h24v24h-24z" opacity="0"/><path d="m21.9999843 15.009808.0249535-.009808v4.5857864c0 .5522848-.4477152 1-1 1-.2652165 0-.5195704-.1053568-.7071068-.2928932l-2.2928932-2.2928932h-13.0249378c-1.65685425 0-3-1.3431458-3-3v-9c0-1.65685425 1.34314575-3 3-3h14c1.6568542 0 3 1.34314575 3 3v9c0 .0032706-.0000052.0065399-.0000157.009808zm-15.83203459-4.4551078c1.50963156 2.2644473 3.477719 3.4452998 5.83205029 3.4452998 2.3543313 0 4.3224187-1.1808525 5.8320503-3.4452998.3063525-.4595287.1821786-1.08039804-.2773501-1.38675049-.4595287-.30635246-1.080398-.18217859-1.3867505.27735009-1.1570351 1.7355527-2.522281 2.5547002-4.1679497 2.5547002s-3.0109146-.8191475-4.16794971-2.5547002c-.30635245-.45952868-.9272218-.58370255-1.38675049-.27735009-.45952868.30635245-.58370255.92722179-.27735009 1.38675049z" fill="#000"/></g></svg>

<svg width="24px" height="24px" viewBox="0 0 24 24" version="1.1" xmlns="http://www.w3.org/2000/svg" xmlns:xlink="http://www.w3.org/1999/xlink">
    <title>Icon For Chat#4</title>
    <g stroke="none" stroke-width="1" fill="none" fill-rule="evenodd">
        <rect opacity="0" x="0" y="0" width="24" height="24"></rect>
        <path d="M21.9999843,15.009808 L22.0249378,15 L22.0249378,19.5857864 C22.0249378,20.1380712 21.5772226,20.5857864 21.0249378,20.5857864 C20.7597213,20.5857864 20.5053674,20.4804296 20.317831,20.2928932 L18.0249378,18 L5,18 C3.34314575,18 2,16.6568542 2,15 L2,6 C2,4.34314575 3.34314575,3 5,3 L19,3 C20.6568542,3 22,4.34314575 22,6 L22,15 C22,15.0032706 21.9999948,15.0065399 21.9999843,15.009808 Z M6.16794971,10.5547002 C7.67758127,12.8191475 9.64566871,14 12,14 C14.3543313,14 16.3224187,12.8191475 17.8320503,10.5547002 C18.1384028,10.0951715 18.0142289,9.47430216 17.5547002,9.16794971 C17.0951715,8.86159725 16.4743022,8.98577112 16.1679497,9.4452998 C15.0109146,11.1808525 13.6456687,12 12,12 C10.3543313,12 8.9890854,11.1808525 7.83205029,9.4452998 C7.52569784,8.98577112 6.90482849,8.86159725 6.4452998,9.16794971 C5.98577112,9.47430216 5.86159725,10.0951715 6.16794971,10.5547002 Z" fill="#000000"></path>
    </g>
</svg>
